Documents/Basics/RasterizerDataFlow.svg

<?xml version="1.0" encoding="UTF-8" standalone="no"?>
<svg
   xmlns:dc="http://purl.org/dc/elements/1.1/"
   xmlns:cc="http://creativecommons.org/ns#"
   xmlns:rdf="http://www.w3.org/1999/02/22-rdf-syntax-ns#"
   xmlns:svg="http://www.w3.org/2000/svg"
   xmlns="http://www.w3.org/2000/svg"
   xmlns:xlink="http://www.w3.org/1999/xlink"
   xmlns:sodipodi="http://sodipodi.sourceforge.net/DTD/sodipodi-0.dtd"
   xmlns:inkscape="http://www.inkscape.org/namespaces/inkscape"
   version="1.1"
   stroke-miterlimit="10"
   id="svg2"
   inkscape:version="0.48.0 r9654"
   width="700"
   height="375"
   sodipodi:docname="RasterizerDataFlow.svg"
   style="fill:none;stroke:none">
  <metadata
     id="metadata36">
    <rdf:RDF>
      <cc:Work
         rdf:about="">
        <dc:format>image/svg+xml</dc:format>
        <dc:type
           rdf:resource="http://purl.org/dc/dcmitype/StillImage" />
        <dc:title></dc:title>
      </cc:Work>
    </rdf:RDF>
  </metadata>
  <defs
     id="defs34" />
  <sodipodi:namedview
     pagecolor="#ffffff"
     bordercolor="#666666"
     borderopacity="1"
     objecttolerance="10"
     gridtolerance="10"
     guidetolerance="10"
     inkscape:pageopacity="0"
     inkscape:pageshadow="2"
     inkscape:window-width="1232"
     inkscape:window-height="760"
     id="namedview32"
     showgrid="false"
     inkscape:zoom="1"
     inkscape:cx="429.99498"
     inkscape:cy="134.23622"
     inkscape:window-x="38"
     inkscape:window-y="149"
     inkscape:window-maximized="0"
     inkscape:current-layer="layer2"
     showguides="true"
     inkscape:guide-bbox="true"
     inkscape:snap-bbox="false"
     inkscape:snap-bbox-midpoints="false">
    <sodipodi:guide
       orientation="1,0"
       position="23,290"
       id="guide3825" />
    <sodipodi:guide
       orientation="1,0"
       position="211,384"
       id="guide3042" />
    <sodipodi:guide
       orientation="0,1"
       position="45,319"
       id="guide3048" />
    <sodipodi:guide
       orientation="0,1"
       position="269,140"
       id="guide3862" />
    <sodipodi:guide
       orientation="1,0"
       position="215.5,248.5"
       id="guide3868" />
    <sodipodi:guide
       orientation="0,1"
       position="605.28341,225.56706"
       id="guide3874" />
    <sodipodi:guide
       orientation="1,0"
       position="299.5,291.75"
       id="guide3878" />
    <sodipodi:guide
       orientation="0,1"
       position="626.14306,207.53584"
       id="guide3882" />
    <sodipodi:guide
       orientation="0,1"
       position="650.18469,149.55308"
       id="guide3884" />
    <sodipodi:guide
       orientation="0,1"
       position="574.87781,160.86679"
       id="guide3886" />
    <sodipodi:guide
       orientation="1,0"
       position="476,365"
       id="guide3921" />
  </sodipodi:namedview>
  <g
     inkscape:groupmode="layer"
     id="layer1"
     inkscape:label="Background"
     sodipodi:insensitive="true">
    <path
       d="m 23,76.87021 0,0 c 0,-7.98065 6.4696,-14.45026 14.45026,-14.45026 l 170.56406,0 c 3.8324,0 7.50787,1.52243 10.2178,4.23238 2.71,2.70996 4.23245,6.38544 4.23245,10.21788 l 0,52.98923 c 0,7.98068 -6.46961,14.45028 -14.45025,14.45028 l -170.56406,0 C 29.4696,144.30972 23,137.84012 23,129.85944 z"
       id="path4"
       inkscape:connector-curvature="0"
       style="fill:#efecfd;fill-opacity:1;stroke:#000000;stroke-width:1;stroke-linecap:butt;stroke-linejoin:round;stroke-miterlimit:10;stroke-dasharray:none" />
    <path
       d="m 23,176.50538 0,0 c 0,-7.98066 6.46961,-14.45027 14.45027,-14.45027 l 170.56405,0 c 3.83241,0 7.50787,1.52243 10.21781,4.23238 2.70999,2.70996 4.23245,6.38544 4.23245,10.21789 l 0,52.98922 c 0,7.98069 -6.46961,14.45028 -14.45026,14.45028 l -170.56405,0 C 29.46961,243.94488 23,237.47528 23,229.4946 z"
       id="path4-4"
       inkscape:connector-curvature="0"
       style="fill:#efecfd;fill-opacity:1;stroke:#000000;stroke-width:1;stroke-linecap:butt;stroke-linejoin:round;stroke-miterlimit:10;stroke-dasharray:none" />
    <path
       d="m 23,272.50538 0,0 c 0,-7.98066 6.46961,-14.45027 14.45027,-14.45027 l 170.56405,0 c 3.83241,0 7.50787,1.52243 10.21781,4.23238 2.70999,2.70996 4.23245,6.38544 4.23245,10.21789 l 0,52.98922 c 0,7.98068 -6.46961,14.45028 -14.45026,14.45028 l -170.56406,0 C 29.46961,339.94488 23,333.47528 23,325.4946 z"
       id="path4-2"
       inkscape:connector-curvature="0"
       style="fill:#efecfd;fill-opacity:1;stroke:#000000;stroke-width:1;stroke-linecap:butt;stroke-linejoin:round;stroke-miterlimit:10;stroke-dasharray:none" />
    <rect
       style="fill:#d3f3a2;fill-opacity:1;stroke:none"
       id="rect3858"
       width="132"
       height="207"
       x="277"
       y="28" />
    <rect
       style="fill:#efdefb;fill-opacity:1;stroke:none"
       id="rect3860"
       width="105"
       height="226"
       x="425"
       y="9" />
    <rect
       style="fill:#d3f7ef;fill-opacity:1;stroke:none"
       id="rect3864"
       width="145"
       height="202"
       x="544"
       y="33" />
  </g>
  <g
     inkscape:groupmode="layer"
     id="layer2"
     inkscape:label="Foreground">
    <text
       xml:space="preserve"
       style="font-size:20px;font-style:normal;font-variant:normal;font-weight:normal;font-stretch:normal;text-align:center;line-height:125%;writing-mode:lr-tb;text-anchor:middle;fill:#000000;fill-opacity:1;stroke:none;font-family:Serif;-inkscape-font-specification:Serif"
       x="119"
       y="56"
       id="text4066"
       sodipodi:linespacing="125%"><tspan
         sodipodi:role="line"
         x="119"
         y="56"
         id="tspan4068"><tspan
           x="119"
           y="56"
           id="tspan4070"
           style="font-size:20px;font-style:normal;font-variant:normal;font-weight:normal;font-stretch:normal;text-align:center;line-height:125%;writing-mode:lr-tb;text-anchor:middle;font-family:Serif;-inkscape-font-specification:Serif">Vertex Shaders</tspan></tspan></text>
    <text
       xml:space="preserve"
       style="font-size:20px;font-style:normal;font-variant:normal;font-weight:normal;font-stretch:normal;text-align:end;line-height:125%;writing-mode:lr-tb;text-anchor:end;fill:#000000;fill-opacity:1;stroke:none;font-family:Serif;-inkscape-font-specification:Serif"
       x="211"
       y="125.34438"
       id="text3036"
       sodipodi:linespacing="125%"><tspan
         sodipodi:role="line"
         x="211"
         y="125.34438"
         id="tspan3038"><tspan
           x="211"
           y="125.34438"
           id="tspan3040"
           style="font-size:20px;font-style:normal;font-variant:normal;font-weight:normal;font-stretch:normal;text-align:end;line-height:125%;writing-mode:lr-tb;text-anchor:end;font-family:Serif;-inkscape-font-specification:Serif">gl_Position</tspan></tspan></text>
    <use
       x="0"
       y="0"
       xlink:href="#text3036"
       id="use3044"
       transform="translate(0,101.5)"
       width="700"
       height="375" />
    <use
       height="375"
       width="700"
       transform="translate(0,198.5)"
       id="use3046"
       xlink:href="#text3036"
       y="0"
       x="0" />
    <text
       xml:space="preserve"
       style="font-size:20px;font-style:normal;font-variant:normal;font-weight:normal;font-stretch:normal;text-align:center;line-height:125%;writing-mode:lr-tb;text-anchor:middle;fill:#000000;fill-opacity:1;stroke:none;font-family:Serif;-inkscape-font-specification:Serif"
       x="341.85938"
       y="56"
       id="text3915"
       sodipodi:linespacing="125%"><tspan
         sodipodi:role="line"
         x="341.85938"
         y="56"
         id="tspan3917"><tspan
           x="341.85938"
           y="56"
           id="tspan3919">Divide by W</tspan></tspan></text>
    <text
       xml:space="preserve"
       style="font-size:20px;font-style:normal;font-variant:normal;font-weight:normal;font-stretch:normal;text-align:center;line-height:125%;writing-mode:lr-tb;text-anchor:middle;fill:#000000;fill-opacity:1;stroke:none;font-family:Serif;-inkscape-font-specification:Serif"
       x="476"
       y="30.344383"
       id="text3909"
       sodipodi:linespacing="125%"><tspan
         sodipodi:role="line"
         x="476"
         y="30.344383"
         id="tspan3911"><tspan
           x="476"
           y="30.344383"
           id="tspan3913">Viewport</tspan></tspan></text>
    <text
       xml:space="preserve"
       style="font-size:20px;font-style:normal;font-variant:normal;font-weight:normal;font-stretch:normal;text-align:center;line-height:125%;writing-mode:lr-tb;text-anchor:middle;fill:#000000;fill-opacity:1;stroke:none;font-family:Serif;-inkscape-font-specification:Serif"
       x="476"
       y="56"
       id="text3903"
       sodipodi:linespacing="125%"><tspan
         sodipodi:role="line"
         x="476"
         y="56"
         id="tspan3905"><tspan
           x="476"
           y="56"
           id="tspan3907">Transform</tspan></tspan></text>
    <text
       xml:space="preserve"
       style="font-size:20px;font-style:normal;font-variant:normal;font-weight:normal;font-stretch:normal;text-align:center;line-height:125%;writing-mode:lr-tb;text-anchor:middle;fill:#000000;fill-opacity:1;stroke:none;font-family:Serif;-inkscape-font-specification:Serif"
       x="619"
       y="56"
       id="text3086"
       sodipodi:linespacing="125%"><tspan
         sodipodi:role="line"
         id="tspan3088"
         x="619"
         y="56">Rasterizer</tspan></text>
    <path
       style="fill:none;stroke:#ff0000;stroke-width:1px;stroke-linecap:butt;stroke-linejoin:miter;stroke-opacity:1"
       d="M 215.5,120.5 C 245,113 242,106 250.5,94.5 258.52428,83.643622 265,72 299.5,72 334,72 472,72 472,72 l 84.25,0 c 14.2522,0 58.59552,13.478853 78.51614,49.65218 19.92063,36.17334 15.41855,95.04117 15.41855,103.79474"
       id="path3866"
       inkscape:connector-curvature="0"
       sodipodi:nodetypes="cssccsc" />
    <path
       style="fill:none;stroke:#ff0000;stroke-width:1px;stroke-linecap:butt;stroke-linejoin:miter;stroke-opacity:1"
       d="m 215.5,223 c 10.5,0.25 13.5,0.3125 16.4375,-10.625 4.22456,-17.80425 4.14317,-66.99545 17.13483,-84.29657 C 269.33332,101.58329 291.49609,98.25 299.5,98.25 L 556.25,96.5 c 32.5,0 69.89306,57.20507 69.89306,70.96416"
       id="path3870"
       inkscape:connector-curvature="0"
       sodipodi:nodetypes="cccccc" />
    <path
       style="fill:none;stroke:#ff0000;stroke-width:1px;stroke-linecap:butt;stroke-linejoin:miter;stroke-opacity:1"
       d="m 215.5,320.90633 c 41.07173,0 37.20211,-19.16428 37.20211,-52.2362 0,-33.07192 9.46121,-85.2332 16.37888,-114.57448 6.50047,-27.57172 17.16984,-32.97002 30.41901,-32.97002 13.24917,0 234.58665,0 256.75,0 11.08168,0 30.88796,24.75849 28.23176,46.33853 -2.70966,22.01445 -9.60395,40.30509 -9.60395,46.66905"
       id="path3880"
       inkscape:connector-curvature="0"
       sodipodi:nodetypes="czszssc" />
    <path
       style="fill:none;stroke:#000000;stroke-width:2;stroke-linecap:butt;stroke-linejoin:miter;stroke-opacity:1;stroke-miterlimit:10;stroke-dasharray:none"
       d="m 626.14306,167.46416 24.04163,57.98276 -75.30688,-11.31371 z"
       id="path3888"
       inkscape:connector-curvature="0" />
    <path
       sodipodi:type="arc"
       style="fill:#000000;fill-opacity:1;stroke:none"
       id="path3897"
       sodipodi:cx="626.14307"
       sodipodi:cy="167.46416"
       sodipodi:rx="6.4782476"
       sodipodi:ry="6.4782476"
       d="m 632.62131,167.46416 a 6.4782476,6.4782476 0 1 1 -12.95649,0 6.4782476,6.4782476 0 1 1 12.95649,0 z" />
    <use
       x="0"
       y="0"
       xlink:href="#path3897"
       id="use3899"
       transform="translate(-51.25,46.669053)"
       width="700"
       height="375" />
    <use
       x="0"
       y="0"
       xlink:href="#use3899"
       id="use3901"
       transform="translate(75.3125,11.31371)"
       width="700"
       height="375" />
  </g>
</svg>

<?xml version="1.0" encoding="UTF-8" standalone="no"?>
<!DOCTYPE svg PUBLIC "-//W3C//DTD SVG 1.1//EN" "http://www.w3.org/Graphics/SVG/1.1/DTD/svg11.dtd">
<svg width="100%" height="100%" viewBox="0 0 700 375" version="1.1" xmlns="http://www.w3.org/2000/svg" xmlns:xlink="http://www.w3.org/1999/xlink" xml:space="preserve" xmlns:serif="http://www.serif.com/" style="fill-rule:evenodd;clip-rule:evenodd;stroke-linejoin:round;stroke-miterlimit:10;">
    <g id="Background">
        <path id="path4" d="M23,76.87C23,68.89 29.47,62.42 37.45,62.42L208.014,62.42C211.847,62.42 215.522,63.942 218.232,66.652C220.942,69.362 222.465,73.038 222.465,76.87L222.465,129.859C222.465,137.84 215.995,144.31 208.014,144.31L37.45,144.31C29.47,144.31 23,137.84 23,129.859L23,76.87Z" style="fill:rgb(239,236,253);fill-rule:nonzero;stroke:black;stroke-width:1px;"/>
        <path id="path4-4" d="M23,176.505C23,168.525 29.47,162.055 37.45,162.055L208.014,162.055C211.847,162.055 215.522,163.578 218.232,166.287C220.942,168.997 222.465,172.673 222.465,176.505L222.465,229.495C222.465,237.475 215.995,243.945 208.014,243.945L37.45,243.945C29.47,243.945 23,237.475 23,229.495L23,176.505Z" style="fill:rgb(239,236,253);fill-rule:nonzero;stroke:black;stroke-width:1px;"/>
        <path id="path4-2" d="M23,272.505C23,264.525 29.47,258.055 37.45,258.055L208.014,258.055C211.847,258.055 215.522,259.578 218.232,262.287C220.942,264.997 222.465,268.673 222.465,272.505L222.465,325.495C222.465,333.475 215.995,339.945 208.014,339.945L37.45,339.945C29.47,339.945 23,333.475 23,325.495L23,272.505Z" style="fill:rgb(239,236,253);fill-rule:nonzero;stroke:black;stroke-width:1px;"/>
        <g id="rect3858" transform="matrix(1,0,0,1.13527,0,-22.7874)">
            <rect x="277" y="28" width="132" height="207" style="fill:rgb(211,243,162);"/>
        </g>
        <g id="rect3860" transform="matrix(1,0,0,1.03982,0,-0.358407)">
            <rect x="425" y="9" width="105" height="226" style="fill:rgb(239,222,251);"/>
        </g>
        <g id="rect3864" transform="matrix(1,0,0,1.16337,0,-29.3911)">
            <rect x="544" y="33" width="145" height="202" style="fill:rgb(211,247,239);"/>
        </g>
    </g>
    <g id="Foreground">
        <g transform="matrix(1,0,0,1,119,56)">
            <text x="-67.92px" y="0px" style="font-family:'IBMPlexSans-Regular', 'IBM Plex Sans', sans-serif;font-size:20px;">V<tspan x="-56.34px " y="0px ">e</tspan>rte<tspan x="-20.26px " y="0px ">x</tspan> Shaders</text>
        </g>
        <g transform="matrix(1,0,0,1,211,125.344)">
            <text x="-99.84px" y="0px" style="font-family:'IBMPlexSans-Regular', 'IBM Plex Sans', sans-serif;font-size:20px;">gl<tspan x="-83.54px -72.24px -60.52px " y="0px 0px 0px ">_Po</tspan>sition</text>
        </g>
        <g transform="matrix(1,0,0,1,211,226.844)">
            <text x="-99.84px" y="0px" style="font-family:'IBMPlexSans-Regular', 'IBM Plex Sans', sans-serif;font-size:20px;">gl<tspan x="-83.54px -72.24px -60.52px " y="0px 0px 0px ">_Po</tspan>sition</text>
        </g>
        <g transform="matrix(1,0,0,1,211,323.844)">
            <text x="-99.84px" y="0px" style="font-family:'IBMPlexSans-Regular', 'IBM Plex Sans', sans-serif;font-size:20px;">gl<tspan x="-83.54px -72.24px -60.52px " y="0px 0px 0px ">_Po</tspan>sition</text>
        </g>
        <g transform="matrix(1,0,0,1,341.859,30.3444)">
            <text x="-52.29px" y="0px" style="font-family:'IBMPlexSans-Regular', 'IBM Plex Sans', sans-serif;font-size:20px;">Divide b<tspan x="19.77px " y="0px ">y</tspan> W</text>
        </g>
        <g transform="matrix(1,0,0,1,512.88,30.3444)">
            <text x="-75.71px" y="-0px" style="font-family:'IBMPlexSans-Regular', 'IBM Plex Sans', sans-serif;font-size:20px;">Viewport</text>
            <g transform="matrix(20,0,0,20,10.5596,25)">
            </g>
            <text x="-81.32px" y="25px" style="font-family:'IBMPlexSans-Regular', 'IBM Plex Sans', sans-serif;font-size:20px;">T<tspan x="-70.78px " y="25px ">r</tspan>ans<tspan x="-31.84px " y="25px ">f</tspan>orm</text>
        </g>
        <g transform="matrix(1,0,0,1,619,30.3444)">
            <text x="-45.27px" y="0px" style="font-family:'IBMPlexSans-Regular', 'IBM Plex Sans', sans-serif;font-size:20px;">R<tspan x="-32.67px -21.99px -12.39px " y="0px 0px 0px ">ast</tspan>eriz<tspan x="26.95px " y="0px ">e</tspan>r</text>
        </g>
        <path id="path3866" d="M215.5,120.5C245,113 242,106 250.5,94.5C258.524,83.644 265,72 299.5,72L556.25,72C570.502,72 614.846,85.479 634.766,121.652C654.687,157.826 650.185,216.693 650.185,225.447" style="fill:none;fill-rule:nonzero;stroke:rgb(255,0,0);stroke-width:1px;stroke-linejoin:miter;"/>
        <path id="path3870" d="M215.5,223C226,223.25 229,223.313 231.938,212.375C236.162,194.571 236.081,145.38 249.072,128.078C269.333,101.583 291.496,98.25 299.5,98.25L556.25,96.5C588.75,96.5 626.143,153.705 626.143,167.464" style="fill:none;fill-rule:nonzero;stroke:rgb(255,0,0);stroke-width:1px;stroke-linejoin:miter;"/>
        <path id="path3880" d="M215.5,320.906C256.572,320.906 252.702,301.742 252.702,268.67C252.702,235.598 262.163,183.437 269.081,154.096C275.581,126.524 286.251,121.126 299.5,121.126L556.25,121.126C567.332,121.126 587.138,145.884 584.482,167.464C581.772,189.479 574.878,207.769 574.878,214.133" style="fill:none;fill-rule:nonzero;stroke:rgb(255,0,0);stroke-width:1px;stroke-linejoin:miter;"/>
        <path id="path3888" d="M626.143,167.464L650.185,225.447L574.878,214.133L626.143,167.464Z" style="fill:none;fill-rule:nonzero;stroke:black;stroke-width:2px;stroke-linejoin:miter;"/>
        <path id="path3897" d="M632.621,167.458L632.621,167.47C632.621,171.024 629.697,173.948 626.143,173.948C622.589,173.948 619.665,171.024 619.665,167.47L619.665,167.458C619.665,163.904 622.589,160.98 626.143,160.98C629.697,160.98 632.621,163.904 632.621,167.458Z" style="fill-rule:nonzero;"/>
        <g id="use3899" transform="matrix(1,0,0,1,-51.25,46.6691)">
            <path d="M632.621,167.458L632.621,167.47C632.621,171.024 629.697,173.948 626.143,173.948C622.589,173.948 619.665,171.024 619.665,167.47L619.665,167.458C619.665,163.904 622.589,160.98 626.143,160.98C629.697,160.98 632.621,163.904 632.621,167.458Z" style="fill-rule:nonzero;"/>
        </g>
        <g id="use3901" transform="matrix(1,0,0,1,24.0416,57.9828)">
            <path d="M632.621,167.458L632.621,167.47C632.621,171.024 629.697,173.948 626.143,173.948C622.589,173.948 619.665,171.024 619.665,167.47L619.665,167.458C619.665,163.904 622.589,160.98 626.143,160.98C629.697,160.98 632.621,163.904 632.621,167.458Z" style="fill-rule:nonzero;"/>
        </g>
    </g>
</svg>
